!!!COM: Music21
!!!OTL: mazurka_Mazurca-Di-Ivano
!!!OMV: mazurka_Mazurca-Di-Ivano
**kern
*clefG2
*k[]
*M3/4
=1
16ccLL
16ccJJ
=
4cc
4b
4a
=
8eeL
8ffJ
2ee
=
4cc
4b
4a
=
2.aa
=
4aa
4gg
4ff
=
8eeL
16ffL
16eeJJ
2dd
=
4ff
4ee
4dd
=
8ddL
16eeL
16ddJJ
4cc
8.ccL
16ccJk
=
4cc
4b
4a
!!linebreak:original
=
8eeL
8ffJ
2ee
=
4cc
4b
4a
=
2.aa
=
4aa
4gg
4ff
=
8eeL
16ffL
16eeJJ
4.dd
16eeLL
16eeJJ
=
8eeL
8ffJ
8eeL
8ddJ
8ccL
8bJ
=
4a
4a
8r
8ryy
=||
*M3/4
16ccLL
16ccJJ
=
4cc
4b
4a
!!linebreak:original
=
8eeL
8ffJ
2ee
=
4cc
4b
4a
=
2.aa
=
4aa
4gg
4ff
=
8eeL
16ffL
16eeJJ
2dd
=
4ff
4ee
4dd
=
8ddL
16eeL
16ddJJ
4cc
8.ccL
16ccJk
=
4cc
4b
4a
=
8eeL
8ffJ
2ee
=
4cc
4b
4a
=
2.aa
!!linebreak:original
=
4aa
4gg
4ff
=
8eeL
16ffL
16eeJJ
4.dd
16eeLL
16eeJJ
=
8eeL
8ffJ
8eeL
8ddJ
8ccL
8bJ
=
4a
4a
8aL
8bJ
=||
4.cc
8b
8ccL
8ddJ
=
4.cc
8b
8aL
8ccJ
=
4.ee
8dd
8eeL
8ffJ
=
2.ee
!!linebreak:original
=
4ee
8ffL
8eeJ
16ddLL
16ee
16dd
16ccJJ
=
8ddL
8ccJ
2b
=
4dd
8eeL
8ddJ
8ccL
8bJ
=
8ccL
8bJ
4a
8aL
8bJ
=
16ccLL
16dd
16cc
16bJJ
8ccL
8bJ
8ccL
8ddJ
=
4.cc
8b
8aL
8ccJ
=
4.ee
8dd
8eeL
8ffJ
=
2.ee
!!linebreak:original
=
4ee
8ffL
8eeJ
16ddLL
16ee
16dd
16ccJJ
=
8ddL
8ccJ
4.b
16eeLL
16eeJJ
=
8eeL
8ffJ
8eeL
8ddJ
8ccL
8bJ
=
4a
4a
8r
8ryy
=||
*-
